icons/24x24_calendar_filled.svg

<svg xmlns="http://www.w3.org/2000/svg" width="24" height="24" viewBox="0 0 24 24">
  <path fill-rule="evenodd" d="M17,5 L19,5 C20.1045695,5 21,5.8954305 21,7 L21,19 C21,20.1045695 20.1045695,21 19,21 L5,21 C3.8954305,21 3,20.1045695 3,19 L3,7 C3,5.8954305 3.8954305,5 5,5 L7,5 L7,4 C7,3.44771525 7.44771525,3 8,3 C8.55228475,3 9,3.44771525 9,4 L9,5 L15,5 L15,4 C15,3.44771525 15.4477153,3 16,3 C16.5522847,3 17,3.44771525 17,4 L17,5 Z M3,10 L21,10 L21,9 L3,9 L3,10 Z"/>
</svg>

<svg width="24" height="24" fill="none" xmlns="http://www.w3.org/2000/svg"><path fill-rule="evenodd" clip-rule="evenodd" d="M17 5h2a2 2 0 0 1 2 2v12a2 2 0 0 1-2 2H5a2 2 0 0 1-2-2V7a2 2 0 0 1 2-2h2V4a1 1 0 0 1 2 0v1h6V4a1 1 0 1 1 2 0v1ZM3 10h18V9H3v1Z" fill="#000"/></svg>
